X:185
T:The Morning Mist
R:reel
M:4/4
L:1/8
K:Gmaj
d2BG DGBG|dGBG DGBd|c2Bd c=F~F2|C=FAF CFAc|
d2BG DGBG|dGBG DGBd|c2AB cedc|1 BdAF G2Bc:|2 BdAF G2Bd||
|:g2dc Bcdc|BG~G2 DGBd|ageg a2ga|fdad bdaf|
g2dc Bcdc|BG~G2 DGBd|c2AB cedc|1 BdAF G2Bd:|2 BdAF G2Bc||

